X:1
T:A Major Oliver Brownson, 1783
T:Isaac Watts, 1719 (Psalm 146)             88. 88. 88.
T:Bolton
T:Transcribed from Brownson's Select Harmony, 1783.
%%score [ 1 2 3 4 ]
L:1/8
Q:1/4=120
M:2/4
K:A
V:1 treble nm="Treble" snm="Tr."
V:2 treble nm="Counter" snm="C."
V:3 treble-8 nm="Tenor" snm="T."
V:4 bass nm="Bass" snm="B."
V:1
"^2. Why should I     make  a   man     my        trust?     Prin – ces   must die    and turn    to               dust;    Vain      is       the""^1. I'll     praise my   Maker    with     my       breath,   And    when my  voice  is   lost       in              death,  Praise shall em–" c4 | %1
 A2 A2 | G2 B2 | c4 | B4 | c4 || B4 | A2 A2 | c2 c2 | c4 | B4 | B4 || c4 | c2 A2 | %14
"^–ploy  my    nobler powers;  My    days  of    praise  shall      ne'er  be     past _____            While life, and thought, and being""^help  of     flesh and blood: Their breath departs, their pomp, and   power, ___            And  thoughts,  all  vanish    in an" A2 A2 | %15
 B2 G2 | G2 G2 | A2 F2 | F2 F2 | c2 d2 | B4- | B4 | B4 | c2 c2 | c2 d2 | B2 B2 | %26
"^last,   Or      im – mor   –    ta          –        –        –          li      –     ty _____________         en  –  dures.""^hour,  Nor   can  they        make _______________    their       pro        –        –            mise   good." B2 c2 | %27
 A2 e2 | (cdcB | AB) cA | B4- | B2 B2 | c4- | c4 |] %34
V:2
"^3. Hap – py    the   man whose hopes  re  –  ly          On        Israel's    God:  he   made    the             sky,       And   earth, and""^4. The   Lord hath eyes  to      give     the  blind;       The       Lord supports the sin   –    king         mind;     He    sends  the" E4 | %1
 F2 F2 | E2 D2 | C4 | E4 | E4 || E4 | E2 E2 | C2 E2 | F4 | F4 | E4 || E4 | F2 F2 | %14
"^seas, with   all their train:  His   truth for    e    –     ver         stands se–cure; ____             He saves th'oppressed, he feeds the""^labo–ring conscience peace;  He helps the    stran– ger           in    dis – tress, ____             The         widow    and  the   fa – ther–" D2 CD | %15
 E2 E2 | E2 D2 | C2 F2 | F>G FE | F2 F2 | E4- | E2 z2 | G4 | A2 A2 | A2 A2 | B2 G2 | %26
"^poor,   And none shall    find _______________       his         pro        –        –             mise    vain.""^–less,    And grants the      pri            –        –            soner       sweet ___________       re   –  lease." E2 C2 | %27
 E2 G2 | (F4 | G2) A2 | (F4 | E2) E2 | C4- | C4 |] %34
V:3
"^5. He   loves  his  saints,  he  knows  them  well,     But      turns the   wicked    down   to               hell;      Thy     God,  O""^6.  I'll praise him while   he  lends    me    breath;  And     when my   voice is    lost        in             death,  Praise shall em–" A4 | %1
 c2 d2 | B2 B2 | A4 | G4 | A4 || B4 | c2 c2 | e2 c2 | A4 | (d2 c2) | B4 || A4 | c2 c2 | %14
"^Zi  –  on!       e – ver reigns:  Let     ev–ery     tongue, let            ev–ery      age, ____                In          this  ex  –  al –ted   work en–""^–ploy my     nobler powers:  My    days  of    praise   shall       ne'er  be   past, ____            While  life, and thought, and being" c2 A2 | %15
 G2 B2 | B2 c2 | e2 d2 | B2 c2 | A2 A2 | G4- | G2 z2 | e4 | e2 e2 | e2 f2 | d2 d2 | %26
"^–gage;  Praise him   in           e          –        –        –         ver     –    las           –        –           ting    strains.""^last,    Or      im  –  mor   –   tal        –        –        –           i        –     ty ________________   en  –   dures." d2 e2 | %27
 c2 B>A | (ABAB | c2) e2 | (d2 Bc | BA) G2 | A4- | A4 |] %34
V:4
 A,4 | F,2 D,2 | E,2 G,2 | A,4 | E,4 | A,,4 || E,4 | C,2 C,2 | C,2 A,2 | F,4 | B,,4 | E,4 || A,4 | %13
 F,2 F,2 | F,2 A,2 | E,2 E,2 | E,2 G,2 | C2 B,2 | B,2 A,2 | F,2 D,2 | E,4- | E,4 | E,4 | A,2 A,2 | %24
 A,2 F,2 | [B,,G,]2 [B,,G,]2 | [B,,G,]2 [A,,E,]2 | A,2 E,2 | (F,4 | C,2) [A,,A,]2 | (D,2 F,D, | %31
 E,2) E,2 | A,,4- | A,,4 |] %34

